X:1
T:Evening Breezes Waltz 
T:Charles James Dorn (1839 - 1909)
T:Guitar Album, Op.27
%%score ( 1 2 3 )
L:1/8
Q:1/4=184
M:3/4
K:D
V:1 treble-8 nm="Guitare classique"
V:2 treble-8 
V:3 treble-8 
V:1
"_" A2 | A4 B2- | B2!<(! c2 d2!<)! | A4 B2- | B2!<(! c2 d2!<)! | A4 B2 | c4 d2 | d6 | c2 x2 A2 | %9
 A4 c2- | c2 ^d2 e2 | A4 c2- | c2 ^d2 e2 | A2 c2 =d2 | [Ge]2 f2 g2 |!>(! [^G^e]6 | %16
 [Adf]2!>)! z2 A2 | A4 B2- | B2!<(! c2 d2!<)! | A4 B2- | B2!<(! c2 d2!<)! | ^d4 B2 | ^A4 B2 | %23
"_" [GBg]6- | [GBg]2 x2 (fe) |!>(! e4 [EGB]2!>)! | [EGB]4 (!4!e!2!d) | !2!d4 [FA]2 | %28
 [FA]4 !1!A!1!_A | G2 z2 =A2 | [Gcf]4 e2 | [Gce]6 | [Fd]4 |: a2 | [ca]2 _a2 g2- | g2 B2 c2 | %36
 e2 d2 F2- | F2 c2 B2 | !>!B4 A2- | A2 c2 B2 | !>!B4 A2- | A2 a2 a2 |!<(! a2 ^a2 b2!<)! | %43
 [fb]2 a2 f2 | [Ba]4 g2- | g2 f2 e2 | [Fd]2 A2 d2 | [Gc]2 f2 e2 | [Gce]6 | [Fd]4!fine! :|[K:G] d2 | %51
 c4 c2 | f4 e2 | e4 d2 | B4 g2 | g4 f2 | c4 f2 | e4 d2 | B4 z2 | B4 B2 | e4 B2 | d4 c2 | c2 B2 A2 | %63
 [GB]2 d2 G2 | A2 c2 F2 | A2 c2 f2 | [GBg]4 x2 ||"_" [GBg]3 f e2- | eB ^A2 B2 | d3 c A2- | %70
 AA ^G2 A2 | [^DB]3 [DB] [DB-]2 | BB ^A2 B2 | [GB]3 [GB] [GB-]2 | BB ^A2 B2 | [GBg]3 f e2- | %76
 ee ^d2 e2 |"^₵5" [cea]3 !3!b !4!c'2- | c'c' b2 c'2 | !-(![GBb]2 !-)!e'2 e2 | %80
 [ABg][ABg] [ABg]2 !3![ABf]2 | [ABg][ABg] [ABg]2 [ABf]2 | !arpeggio![B,EGBe]2 x2 |: !4!d2 | e6 | %85
 (A!<(!^G)AGA!4!^A!<)! | B6 | (d^c)dcdg | g4 z f | e4 z f | e6 | d4 z ^d | !>!e6 | B^ABABd | %94
 !>!c6 | A,cB,BCA | ([GB]d)!<(!cBAG!<)! | AcBAGF | G3 [GBg] [GBg]2 | [GBg]4!D.C.! |] %100
V:2
 z2 | D6 | F6 | D6 | F6 | D6 | F6 | E6 | G2 z2 x2 | C4 z2 | A,4 z2 | C4 z2 | A,4 z2 | C4 z2 | %14
 A,4 z2 | D6- | D4 z2 | D6 | F6 | D6 | F6 | B,6- | B,4 x2 | E,4 G,2 | B,2 z2 x2 | G,6- | G,6 | %27
 A,6- | A,4 z2 | C4 z2 | A,6 | D6 | D4 |: z2 | A,6 | A,6 | D4 z2 | A,6 | C6 | A,6 | D6 | A,6 | %42
 C2 z2 z2 | !1!^D2 z2 z2 | E,6 | G,6 | A,6 | A,6 | D6 | D4 :|[K:G] z2 | F,2 D2 A2 | F,2 D2 A2 | %53
 G,2 D2 G2 | G,2 D2 G2 | A,2 D2 A2 | F,2 D2 A2 | G,2 D2 G2 | G,2 B,2 D2 | E,2 E2 ^G2 | E,2 E2 ^G2 | %61
 A,2 E2 A2 | A,2 B,2 C2 | D4 z2 | D4 z2 | D6 | G,4 z2 || E,6 | E,6 | A,6 | A,6 | B,6 | B,6 | E,6 | %74
 E,6 | E,6 | E,6 | A,6 | A,6 | B,2 z2 z2 | B,4 z2 | B,4 ^D2 | E,2 z2 |: z2 | F,6 | F,6 | G,6 | %87
 B,6 | A,6 | F,6 | G,6 | B,6 | E,6 | E,6 | A,6 | A,2 B,2 C2 | D6 | D6 | G,6 | G,4 |] %100
V:3
 x2 | x6 | x6 | x6 | x6 | x6 | x6 | x6 | x6 | x6 | x6 | x6 | x6 | x6 | x6 | x6 | x6 | x6 | x6 | %19
 x6 | x6 | x6 | x6 | x6 | x6 | x6 | x6 | x6 | x6 | x6 | x6 | x6 | x4 |: x2 | x6 | x6 | x6 | x6 | %38
 x6 | x6 | x6 | x6 | x6 | x6 | x6 | x6 | x6 | x6 | x6 | x4 :|[K:G] x2 | x6 | x6 | x6 | x6 | x6 | %56
 x6 | x6 | x6 | x6 | x6 | x6 | x6 | x6 | x6 | x6 | x6 || x6 | x6 | x6 | x6 | x6 | x6 | x6 | x6 | %75
 x6 | x6 | x6 | x6 | x6 | x6 | x6 | x4 |: x2 | z2 !3![DA]2 [DA]2 | x6 | z2 [DG]2 [DG]2 | x6 | %88
 z2 [DA]2 [DA]2 | z2 [DA]2 [DA]2 | z2 [DG]2 [DG]2 | z2 [DG]2 [DG]2 | z2 [E^G]2 [EG]2 | x6 | %94
 z2 [EA]2 [EA]2 | x6 | x6 | x6 | x6 | x4 |] %100

